2 Export/Icons/Rounded/Visibility Off.svg

<svg xmlns="http://www.w3.org/2000/svg" xmlns:xlink="http://www.w3.org/1999/xlink" width="24" height="24" viewBox="0 0 24 24">
  <defs>
    <path id="visibility-off-a" d="M12,6.6325 C14.76,6.6325 17,8.8725 17,11.6325 C17,12.1425 16.9,12.6325 16.76,13.0925 L19.82,16.1525 C21.21,14.9225 22.31,13.3825 23,11.6225 C21.27,7.2425 17,4.1325 12,4.1325 C10.73,4.1325 9.51,4.3325 8.36,4.7025 L10.53,6.8725 C11,6.7325 11.49,6.6325 12,6.6325 Z M2.71,3.2925 C2.32,3.6825 2.32,4.3125 2.71,4.7025 L4.68,6.6725 C3.06,7.9625 1.77,9.6625 1,11.6325 C2.73,16.0225 7,19.1325 12,19.1325 C13.52,19.1325 14.97,18.8325 16.31,18.3125 L19.03,21.0325 C19.42,21.4225 20.05,21.4225 20.44,21.0325 C20.83,20.6425 20.83,20.0125 20.44,19.6225 L4.13,3.2925 C3.74,2.9025 3.1,2.9025 2.71,3.2925 Z M12,16.6325 C9.24,16.6325 7,14.3925 7,11.6325 C7,10.8625 7.18,10.1325 7.49,9.4925 L9.06,11.0625 C9.03,11.2425 9,11.4325 9,11.6325 C9,13.2925 10.34,14.6325 12,14.6325 C12.2,14.6325 12.38,14.6025 12.57,14.5625 L14.14,16.1325 C13.49,16.4525 12.77,16.6325 12,16.6325 Z M14.97,11.3025 C14.82,9.9025 13.72,8.8125 12.33,8.6625 L14.97,11.3025 Z"/>
  </defs>
  <g fill="none" fill-rule="evenodd">
    <polygon points="0 0 24 0 24 24 0 24"/>
    <mask id="visibility-off-b" fill="#fff">
      <use xlink:href="#visibility-off-a"/>
    </mask>
    <use fill="#000" xlink:href="#visibility-off-a"/>
    <g fill="#000" mask="url(#visibility-off-b)">
      <rect width="24" height="24"/>
    </g>
  </g>
</svg>

<svg xmlns="http://www.w3.org/2000/svg" xmlns:xlink="http://www.w3.org/1999/xlink" width="24" height="24" viewBox="0 0 24 24">
  <defs>
    <path id="visibility-off-a" d="M12 6.633c2.76 0 5 2.24 5 5 0 .51-.1 1-.24 1.46l3.06 3.06c1.39-1.23 2.49-2.77 3.18-4.53-1.73-4.38-6-7.49-11-7.49-1.27 0-2.49.2-3.64.57l2.17 2.17c.47-.14.96-.24 1.47-.24zm-9.29-3.34a.996.996 0 0 0 0 1.41l1.97 1.97A11.892 11.892 0 0 0 1 11.633c1.73 4.39 6 7.5 11 7.5 1.52 0 2.97-.3 4.31-.82l2.72 2.72a.996.996 0 1 0 1.41-1.41L4.13 3.293c-.39-.39-1.03-.39-1.42 0zM12 16.633c-2.76 0-5-2.24-5-5 0-.77.18-1.5.49-2.14l1.57 1.57c-.03.18-.06.37-.06.57 0 1.66 1.34 3 3 3 .2 0 .38-.03.57-.07l1.57 1.57c-.65.32-1.37.5-2.14.5zm2.97-5.33a2.97 2.97 0 0 0-2.64-2.64l2.64 2.64z"/>
  </defs>
  <g fill="none" fill-rule="evenodd">
    <polygon points="0 0 24 0 24 24 0 24"/>
    <mask id="visibility-off-b" fill="#fff">
      <use xlink:href="#visibility-off-a"/>
    </mask>
    <use fill="#000" xlink:href="#visibility-off-a"/>
    <g fill="#000" mask="url(#visibility-off-b)">
      <rect width="24" height="24"/>
    </g>
  </g>
</svg>
